apps/ledger-live-desktop/src/renderer/images/crash-screen.svg

<svg width="224" height="159" viewBox="0 0 224 159" fill="none" xmlns="http://www.w3.org/2000/svg">
<mask id="mask0" mask-type="alpha" maskUnits="userSpaceOnUse" x="11" y="12" width="202" height="147">
<path fill-rule="evenodd" clip-rule="evenodd" d="M213 34.7765C212.021 34.9237 211.02 35 210 35C198.954 35 190 26.0457 190 15C190 13.9804 190.076 12.9786 190.223 12H14C12.3431 12 11 13.3431 11 15V156C11 157.657 12.3432 159 14 159H210C211.657 159 213 157.657 213 156V34.7765Z" fill="#C4C4C4"/>
</mask>
<g mask="url(#mask0)">
<g filter="url(#filter0_d)">
<rect x="11" y="12" width="202" height="147" fill="#F5F5F5"/>
<rect x="11" y="12.7749" width="42.0833" height="146.45" fill="white"/>
<circle cx="18.1541" cy="19.9291" r="1.2625" fill="#142533" fill-opacity="0.1"/>
<circle cx="22.3626" cy="19.9291" r="1.2625" fill="#142533" fill-opacity="0.1"/>
<circle cx="26.5709" cy="19.9291" r="1.2625" fill="#142533" fill-opacity="0.1"/>
<rect x="16.8916" y="38.8667" width="7.575" height="1.68333" rx="0.841667" fill="#142533" fill-opacity="0.3"/>
<rect x="64.0249" y="32.975" width="42.0833" height="1.68333" rx="0.841667" fill="#142533" fill-opacity="0.3"/>
<rect x="64.0249" y="37.1833" width="16.8333" height="1.68333" rx="0.841667" fill="#142533" fill-opacity="0.1"/>
<rect x="16.8916" y="89.3667" width="7.575" height="1.68333" rx="0.841667" fill="#142533" fill-opacity="0.3"/>
<rect x="16.8916" y="45.6" width="25.25" height="1.68333" rx="0.841667" fill="#142533" fill-opacity="0.1"/>
<rect x="16.8916" y="52.3334" width="21.8833" height="1.68333" rx="0.841667" fill="#142533" fill-opacity="0.1"/>
<rect x="16.8916" y="59.0667" width="25.25" height="1.68333" rx="0.841667" fill="#142533" fill-opacity="0.1"/>
<rect x="16.8916" y="65.8" width="21.8833" height="1.68333" rx="0.841667" fill="#142533" fill-opacity="0.1"/>
<rect x="16.8916" y="72.5333" width="25.25" height="1.68333" rx="0.841667" fill="#142533" fill-opacity="0.1"/>
<rect x="26.1499" y="96.0999" width="17.675" height="1.68333" rx="0.841667" fill="#142533" fill-opacity="0.1"/>
<rect x="26.1499" y="99.4666" width="12.625" height="1.68333" rx="0.841667" fill="#142533" fill-opacity="0.1"/>
<rect x="17.7334" y="96.1" width="5.05" height="5.05" rx="0.841667" fill="#142533" fill-opacity="0.1"/>
<rect x="26.1499" y="107.042" width="17.675" height="1.68333" rx="0.841667" fill="#142533" fill-opacity="0.1"/>
<rect x="26.1499" y="110.408" width="12.625" height="1.68333" rx="0.841667" fill="#142533" fill-opacity="0.1"/>
<rect x="17.7334" y="107.042" width="5.05" height="5.05" rx="0.841667" fill="#142533" fill-opacity="0.1"/>
<rect x="26.1499" y="117.983" width="17.675" height="1.68333" rx="0.841667" fill="#142533" fill-opacity="0.1"/>
<rect x="26.1499" y="121.35" width="12.625" height="1.68333" rx="0.841667" fill="#142533" fill-opacity="0.1"/>
<rect x="17.7334" y="117.983" width="5.05" height="5.05" rx="0.841667" fill="#142533" fill-opacity="0.1"/>
<rect x="64.0249" y="118.825" width="135.508" height="10.9417" rx="2" fill="white"/>
<rect x="64.0249" y="132.292" width="135.508" height="33.6667" rx="2" fill="white"/>
<rect x="64.0249" y="111.25" width="19.3583" height="1.68333" rx="0.841667" fill="#142533" fill-opacity="0.3"/>
<rect x="69.9167" y="123.875" width="26.9333" height="1.68333" rx="0.841667" fill="#142533" fill-opacity="0.1"/>
<rect x="69.9167" y="139.025" width="43.7667" height="1.68333" rx="0.841667" fill="#142533" fill-opacity="0.1"/>
<rect x="69.9167" y="145.758" width="25.25" height="1.68333" rx="0.841667" fill="#142533" fill-opacity="0.1"/>
<rect x="69.9167" y="152.492" width="31.1417" height="1.68333" rx="0.841667" fill="#142533" fill-opacity="0.1"/>
<rect x="180.175" y="123.875" width="14.3083" height="1.68333" rx="0.841667" fill="#142533" fill-opacity="0.1"/>
<rect x="64.0249" y="48.9667" width="135.508" height="50.5" rx="2" fill="white"/>
<rect x="69.9167" y="56.5417" width="21.8833" height="1.68333" rx="0.841667" fill="#142533" fill-opacity="0.3"/>
<path d="M69.075 70.8501L73.2552 74.0063C77.4355 77.1626 85.7961 83.4751 94.1566 82.8438C102.517 82.2126 110.878 74.6376 119.238 74.6376C127.599 74.6376 135.959 82.2126 144.32 85.3688C152.681 88.5251 161.041 87.2626 169.402 84.1063C177.762 80.9501 186.123 75.9001 190.303 73.3751L194.483 70.8501" stroke="#142533" stroke-opacity="0.1" stroke-width="1.2625"/>
<path d="M73.2552 74.0063L70.4238 71.8685C69.8693 71.4498 69.075 71.8454 69.075 72.5402V92.3126C69.075 93.7071 70.2054 94.8376 71.5999 94.8376H191.958C193.353 94.8376 194.483 93.7071 194.483 92.3126V72.3418C194.483 71.6864 193.767 71.2825 193.206 71.6213L190.303 73.3751C186.123 75.9001 177.762 80.9501 169.402 84.1063C161.041 87.2626 152.681 88.5251 144.32 85.3688C135.959 82.2126 127.599 74.6376 119.238 74.6376C110.878 74.6376 102.517 82.2126 94.1566 82.8438C85.7961 83.4751 77.4355 77.1626 73.2552 74.0063L73.2552 74.0063Z" fill="url(#paint0_linear)"/>
<rect x="11.5" y="12.5" width="201" height="146" rx="2.5" stroke="#142533" stroke-opacity="0.1"/>
</g>
</g>
<circle cx="210.054" cy="14.8792" r="13.8875" fill="#EA2E49"/>
<path fill-rule="evenodd" clip-rule="evenodd" d="M209.212 8.56665L209.212 18.3223H210.896L210.896 8.56665H209.212ZM210.896 20.6074C210.896 20.1425 210.519 19.7657 210.054 19.7657C209.589 19.7657 209.212 20.1425 209.212 20.6074V20.6178C209.212 21.0826 209.589 21.4594 210.054 21.4594C210.519 21.4594 210.896 21.0826 210.896 20.6178V20.6074Z" fill="white"/>
<defs>
<filter id="filter0_d" x="5.95" y="9.475" width="212.1" height="164.058" filterUnits="userSpaceOnUse" color-interpolation-filters="sRGB">
<feFlood flood-opacity="0" result="BackgroundImageFix"/>
<feColorMatrix in="SourceAlpha" type="matrix" values="0 0 0 0 0 0 0 0 0 0 0 0 0 0 0 0 0 0 127 0"/>
<feOffset dy="2.525"/>
<feGaussianBlur stdDeviation="2.525"/>
<feColorMatrix type="matrix" values="0 0 0 0 0 0 0 0 0 0 0 0 0 0 0 0 0 0 0.04 0"/>
<feBlend mode="normal" in2="BackgroundImageFix" result="effect1_dropShadow"/>
<feBlend mode="normal" in="SourceGraphic" in2="effect1_dropShadow" result="shape"/>
</filter>
<linearGradient id="paint0_linear" x1="131.779" y1="70.8501" x2="131.779" y2="94.8376" gradientUnits="userSpaceOnUse">
<stop stop-color="#C4C4C4" stop-opacity="0.28"/>
<stop offset="1" stop-color="white" stop-opacity="0"/>
</linearGradient>
</defs>
</svg>

<svg xmlns="http://www.w3.org/2000/svg" width="224" height="159" fill="none" viewBox="0 0 224 159"><mask id="b" width="202" height="147" x="11" y="12" mask-type="alpha" maskUnits="userSpaceOnUse"><path fill="#c4c4c4" fill-rule="evenodd" d="M213 34.777a20 20 0 0 1-3 .223c-11.046 0-20-8.954-20-20q.001-1.53.223-3H14a3 3 0 0 0-3 3v141a3 3 0 0 0 3 3h196a3 3 0 0 0 3-3z" clip-rule="evenodd"/></mask><g filter="url(#a)" mask="url(#b)"><path fill="#f5f5f5" d="M11 12h202v147H11z"/><path fill="#fff" d="M11 12.775h42.083v146.45H11z"/><circle cx="18.154" cy="19.929" r="1.262" fill="#142533" fill-opacity=".1"/><circle cx="22.363" cy="19.929" r="1.262" fill="#142533" fill-opacity=".1"/><circle cx="26.571" cy="19.929" r="1.262" fill="#142533" fill-opacity=".1"/><rect width="7.575" height="1.683" x="16.892" y="38.867" fill="#142533" fill-opacity=".3" rx=".842"/><rect width="42.083" height="1.683" x="64.025" y="32.975" fill="#142533" fill-opacity=".3" rx=".842"/><rect width="16.833" height="1.683" x="64.025" y="37.183" fill="#142533" fill-opacity=".1" rx=".842"/><rect width="7.575" height="1.683" x="16.892" y="89.367" fill="#142533" fill-opacity=".3" rx=".842"/><rect width="25.25" height="1.683" x="16.892" y="45.6" fill="#142533" fill-opacity=".1" rx=".842"/><rect width="21.883" height="1.683" x="16.892" y="52.333" fill="#142533" fill-opacity=".1" rx=".842"/><rect width="25.25" height="1.683" x="16.892" y="59.067" fill="#142533" fill-opacity=".1" rx=".842"/><rect width="21.883" height="1.683" x="16.892" y="65.8" fill="#142533" fill-opacity=".1" rx=".842"/><rect width="25.25" height="1.683" x="16.892" y="72.533" fill="#142533" fill-opacity=".1" rx=".842"/><rect width="17.675" height="1.683" x="26.15" y="96.1" fill="#142533" fill-opacity=".1" rx=".842"/><rect width="12.625" height="1.683" x="26.15" y="99.467" fill="#142533" fill-opacity=".1" rx=".842"/><rect width="5.05" height="5.05" x="17.733" y="96.1" fill="#142533" fill-opacity=".1" rx=".842"/><rect width="17.675" height="1.683" x="26.15" y="107.042" fill="#142533" fill-opacity=".1" rx=".842"/><rect width="12.625" height="1.683" x="26.15" y="110.408" fill="#142533" fill-opacity=".1" rx=".842"/><rect width="5.05" height="5.05" x="17.733" y="107.042" fill="#142533" fill-opacity=".1" rx=".842"/><rect width="17.675" height="1.683" x="26.15" y="117.983" fill="#142533" fill-opacity=".1" rx=".842"/><rect width="12.625" height="1.683" x="26.15" y="121.35" fill="#142533" fill-opacity=".1" rx=".842"/><rect width="5.05" height="5.05" x="17.733" y="117.983" fill="#142533" fill-opacity=".1" rx=".842"/><rect width="135.508" height="10.942" x="64.025" y="118.825" fill="#fff" rx="2"/><rect width="135.508" height="33.667" x="64.025" y="132.292" fill="#fff" rx="2"/><rect width="19.358" height="1.683" x="64.025" y="111.25" fill="#142533" fill-opacity=".3" rx=".842"/><rect width="26.933" height="1.683" x="69.917" y="123.875" fill="#142533" fill-opacity=".1" rx=".842"/><rect width="43.767" height="1.683" x="69.917" y="139.025" fill="#142533" fill-opacity=".1" rx=".842"/><rect width="25.25" height="1.683" x="69.917" y="145.758" fill="#142533" fill-opacity=".1" rx=".842"/><rect width="31.142" height="1.683" x="69.917" y="152.492" fill="#142533" fill-opacity=".1" rx=".842"/><rect width="14.308" height="1.683" x="180.175" y="123.875" fill="#142533" fill-opacity=".1" rx=".842"/><rect width="135.508" height="50.5" x="64.025" y="48.967" fill="#fff" rx="2"/><rect width="21.883" height="1.683" x="69.917" y="56.542" fill="#142533" fill-opacity=".3" rx=".842"/><path stroke="#142533" stroke-opacity=".1" stroke-width="1.262" d="m69.075 70.85 4.18 3.156c4.18 3.157 12.541 9.47 20.902 8.838 8.36-.631 16.721-8.206 25.081-8.206 8.361 0 16.721 7.575 25.082 10.73 8.361 3.157 16.721 1.895 25.082-1.262 8.36-3.156 16.721-8.206 20.901-10.73l4.18-2.526"/><path fill="url(#c)" d="m73.255 74.006-2.831-2.138a.842.842 0 0 0-1.349.672v19.773a2.525 2.525 0 0 0 2.525 2.525h120.358a2.525 2.525 0 0 0 2.525-2.525V72.342a.842.842 0 0 0-1.277-.72l-2.903 1.753c-4.18 2.525-12.541 7.575-20.901 10.731-8.361 3.157-16.721 4.42-25.082 1.263s-16.721-10.731-25.082-10.731c-8.36 0-16.721 7.575-25.081 8.206s-16.721-5.681-20.902-8.838"/><rect width="201" height="146" x="11.5" y="12.5" stroke="#142533" stroke-opacity=".1" rx="2.5"/></g><circle cx="210.054" cy="14.879" r="13.887" fill="#ea2e49"/><path fill="#fff" fill-rule="evenodd" d="M209.212 8.567v9.755h1.684V8.567zm1.684 12.04a.842.842 0 0 0-1.684 0v.01a.842.842 0 0 0 1.684 0z" clip-rule="evenodd"/><defs><linearGradient id="c" x1="131.779" x2="131.779" y1="70.85" y2="94.838" gradientUnits="userSpaceOnUse"><stop stop-color="#c4c4c4" stop-opacity=".28"/><stop offset="1" stop-color="#fff" stop-opacity="0"/></linearGradient><filter id="a" width="212.1" height="164.058" x="5.95" y="9.475" color-interpolation-filters="sRGB" filterUnits="userSpaceOnUse"><feFlood flood-opacity="0" result="BackgroundImageFix"/><feColorMatrix in="SourceAlpha" values="0 0 0 0 0 0 0 0 0 0 0 0 0 0 0 0 0 0 127 0"/><feOffset dy="2.525"/><feGaussianBlur stdDeviation="2.525"/><feColorMatrix values="0 0 0 0 0 0 0 0 0 0 0 0 0 0 0 0 0 0 0.04 0"/><feBlend in2="BackgroundImageFix" result="effect1_dropShadow"/><feBlend in="SourceGraphic" in2="effect1_dropShadow" result="shape"/></filter></defs></svg>
